
;FLAVOR:Marlin
;TIME:0
;Filament used: 0m
;Layer height: 0
;MINX:0
;MINY:0
;MINZ:0
;MAXX:220
;MAXY:220
;MAXZ:250

; Time to print!!!!!
; GCode created with FullControl - tell us what you're printing!
; info@fullcontrol.xyz or tag FullControlXYZ on Twitter/Instagram/LinkedIn/Reddit/TikTok 

G28 ; home axes
M140 S0 ; set bed temp and continue
M105
M104 S0 ; set hotend temp and continue
M190 S0 ; set bed temp and wait
M105
M109 S0  ; set hotend temp and wait
G90 ; absolute coordinates
G21 ; set units to millimeters
M83 ; relative extrusion
M106 S0 ; set fan speed
M220 S100 ; set speed factor override percentage
M221 S100 ; set extrude factor override percentage
G0 F8000 X5 Y5 Z10
G1 F250 E20.7876
G0 F250 Z1
G0 F8000 X10 Y10 Z0.3
;-----
; END OF STARTING PROCEDURE
;-----

;-----
; START OF PRIMER PROCEDURE
;-----
G0 F8000 Y12 Z100
G1 F1000 X110 E4.157517
G1 Y14 E0.08315
G1 X10 E4.157517
G1 Y16 E0.08315
G1 X100 E3.741765
G1 Y100 E3.492314
;-----
; END OF PRIMER PROCEDURE
;-----

G1 F200 X180 E3.326014
G1 X179.998418 Z100.503155 E0.020919
G1 X179.993671 Z101.006289 E0.020919
G1 X179.98576 Z101.509384 E0.020919
G1 X179.974685 Z102.01242 E0.020919
G1 X179.960446 Z102.515375 E0.020919
G1 X179.943044 Z103.018231 E0.020919
G1 X179.92248 Z103.520968 E0.020919
G1 X179.898754 Z104.023566 E0.020919
G1 X179.871868 Z104.526004 E0.020919
G1 X179.841822 Z105.028263 E0.020919
G1 X179.808618 Z105.530324 E0.020919
G1 X179.772257 Z106.032165 E0.020919
G1 X179.73274 Z106.533768 E0.020919
G1 X179.69007 Z107.035113 E0.020919
G1 X179.644247 Z107.536179 E0.020919
G1 X179.595273 Z108.036947 E0.020919
G1 X179.543151 Z108.537397 E0.020919
G1 X179.487882 Z109.03751 E0.020919
G1 X179.429469 Z109.537265 E0.020919
G1 X179.367914 Z110.036642 E0.020919
G1 X179.30322 Z110.535623 E0.020919
G1 X179.235388 Z111.034187 E0.020919
G1 X179.164422 Z111.532314 E0.020919
G1 X179.090325 Z112.029986 E0.020919
G1 X179.013098 Z112.527181 E0.020919
G1 X178.932747 Z113.023881 E0.020919
G1 X178.849273 Z113.520066 E0.020919
G1 X178.76268 Z114.015715 E0.020919
G1 X178.672971 Z114.510811 E0.020919
G1 X178.58015 Z115.005332 E0.020919
G1 X178.484221 Z115.49926 E0.020919
G1 X178.385187 Z115.992575 E0.020919
G1 X178.283052 Z116.485257 E0.020919
G1 X178.177821 Z116.977287 E0.020919
G1 X178.069497 Z117.468645 E0.020919
G1 X177.958085 Z117.959313 E0.020919
G1 X177.84359 Z118.44927 E0.020919
G1 X177.726015 Z118.938497 E0.020919
G1 X177.605365 Z119.426975 E0.020919
G1 X177.481645 Z119.914684 E0.020919
G1 X177.354861 Z120.401606 E0.020919
G1 X177.225016 Z120.887721 E0.020919
G1 X177.092117 Z121.373009 E0.020919
G1 X176.956168 Z121.857452 E0.020919
G1 X176.817175 Z122.341031 E0.020919
G1 X176.675143 Z122.823725 E0.020919
G1 X176.530078 Z123.305517 E0.020919
G1 X176.381986 Z123.786387 E0.020919
G1 X176.230872 Z124.266316 E0.020919
G1 X176.076743 Z124.745285 E0.020919
G1 X175.919605 Z125.223275 E0.020919
G1 X175.759463 Z125.700267 E0.020919
G1 X175.596325 Z126.176243 E0.020919
G1 X175.430196 Z126.651184 E0.020919
G1 X175.261083 Z127.12507 E0.020919
G1 X175.088993 Z127.597883 E0.020919
G1 X174.913933 Z128.069604 E0.020919
G1 X174.735909 Z128.540215 E0.020919
G1 X174.554929 Z129.009697 E0.020919
G1 X174.371 Z129.478032 E0.020919
G1 X174.184129 Z129.9452 E0.020919
G1 X173.994323 Z130.411184 E0.020919
G1 X173.801591 Z130.875965 E0.020919
G1 X173.605939 Z131.339524 E0.020919
G1 X173.407375 Z131.801844 E0.020919
G1 X173.205908 Z132.262906 E0.020919
G1 X173.001544 Z132.722691 E0.020919
G1 X172.794293 Z133.181182 E0.020919
G1 X172.584163 Z133.638361 E0.020919
G1 X172.371161 Z134.094209 E0.020919
G1 X172.155296 Z134.548708 E0.020919
G1 X171.936577 Z135.001841 E0.020919
G1 X171.715013 Z135.453589 E0.020919
G1 X171.490611 Z135.903934 E0.020919
G1 X171.263382 Z136.35286 E0.020919
G1 X171.033333 Z136.800347 E0.020919
G1 X170.800475 Z137.246379 E0.020919
G1 X170.564816 Z137.690937 E0.020919
G1 X170.326366 Z138.134004 E0.020919
G1 X170.085134 Z138.575563 E0.020919
G1 X169.841129 Z139.015596 E0.020919
G1 X169.594362 Z139.454085 E0.020919
G1 X169.344841 Z139.891014 E0.020919
G1 X169.092578 Z140.326364 E0.020919
G1 X168.837581 Z140.76012 E0.020919
G1 X168.579862 Z141.192263 E0.020919
G1 X168.319429 Z141.622777 E0.020919
G1 X168.056294 Z142.051644 E0.020919
G1 X167.790467 Z142.478848 E0.020919
G1 X167.521959 Z142.904371 E0.020919
G1 X167.250779 Z143.328198 E0.020919
G1 X166.976939 Z143.75031 E0.020919
G1 X166.70045 Z144.170692 E0.020919
G1 X166.421322 Z144.589326 E0.020919
G1 X166.139567 Z145.006197 E0.020919
G1 X165.855195 Z145.421287 E0.020919
G1 X165.568218 Z145.83458 E0.020919
G1 X165.278648 Z146.246061 E0.020919
G1 X164.986495 Z146.655712 E0.020919
G1 X164.691772 Z147.063517 E0.020919
G1 X164.394489 Z147.469461 E0.020919
G1 X164.09466 Z147.873527 E0.020919
G1 X163.792295 Z148.275699 E0.020919
G1 X163.487406 Z148.675962 E0.020919
G1 X163.180006 Z149.074299 E0.020919
G1 X162.870107 Z149.470695 E0.020919
G1 X162.557721 Z149.865133 E0.020919
G1 X162.24286 Z150.2576 E0.020919
G1 X161.925537 Z150.648078 E0.020919
G1 X161.605765 Z151.036553 E0.020919
G1 X161.283555 Z151.423009 E0.020919
G1 X160.958922 Z151.807431 E0.020919
G1 X160.631877 Z152.189803 E0.020919
G1 X160.302433 Z152.570111 E0.020919
G1 X159.970604 Z152.948339 E0.020919
G1 X159.636403 Z153.324473 E0.020919
G1 X159.299843 Z153.698498 E0.020919
G1 X158.960937 Z154.070398 E0.020919
G1 X158.619699 Z154.440159 E0.020919
G1 X158.276141 Z154.807767 E0.020919
G1 X157.930279 Z155.173207 E0.020919
G1 X157.582125 Z155.536464 E0.020919
G1 X157.231693 Z155.897525 E0.020919
G1 X156.878997 Z156.256374 E0.020919
G1 X156.524052 Z156.612998 E0.020919
G1 X156.16687 Z156.967383 E0.020919
G1 X155.807467 Z157.319514 E0.020919
G1 X155.445856 Z157.669378 E0.020919
G1 X155.082051 Z158.01696 E0.020919
G1 X154.716068 Z158.362247 E0.020919
G1 X154.34792 Z158.705226 E0.020919
G1 X153.977623 Z159.045883 E0.020919
G1 X153.60519 Z159.384203 E0.020919
G1 X153.230637 Z159.720175 E0.020919
G1 X152.853978 Z160.053784 E0.020919
G1 X152.475228 Z160.385018 E0.020919
G1 X152.094403 Z160.713863 E0.020919
G1 X151.711517 Z161.040307 E0.020919
G1 X151.326585 Z161.364336 E0.020919
G1 X150.939623 Z161.685937 E0.020919
G1 X150.550646 Z162.005098 E0.020919
G1 X150.159669 Z162.321807 E0.020919
G1 X149.766708 Z162.63605 E0.020919
G1 X149.371778 Z162.947816 E0.020919
G1 X148.974896 Z163.257091 E0.020919
G1 X148.576076 Z163.563864 E0.020919
G1 X148.175334 Z163.868123 E0.020919
G1 X147.772687 Z164.169855 E0.020919
G1 X147.36815 Z164.469049 E0.020919
G1 X146.96174 Z164.765693 E0.020919
G1 X146.553471 Z165.059775 E0.020919
G1 X146.143362 Z165.351283 E0.020919
G1 X145.731426 Z165.640206 E0.020919
G1 X145.317682 Z165.926532 E0.020919
G1 X144.902145 Z166.210251 E0.020919
G1 X144.484832 Z166.491351 E0.020919
G1 X144.065759 Z166.76982 E0.020919
G1 X143.644944 Z167.045648 E0.020919
G1 X143.222401 Z167.318824 E0.020919
G1 X142.798149 Z167.589337 E0.020919
G1 X142.372204 Z167.857176 E0.020919
G1 X141.944583 Z168.122331 E0.020919
G1 X141.515302 Z168.384791 E0.020919
G1 X141.08438 Z168.644546 E0.020919
G1 X140.651832 Z168.901586 E0.020919
G1 X140.217676 Z169.1559 E0.020919
G1 X139.781929 Z169.407479 E0.020919
G1 X139.344608 Z169.656312 E0.020919
G1 X138.905731 Z169.90239 E0.020919
G1 X138.465315 Z170.145702 E0.020919
G1 X138.023378 Z170.38624 E0.020919
G1 X137.579936 Z170.623993 E0.020919
G1 X137.135008 Z170.858953 E0.020919
G1 X136.688611 Z171.091109 E0.020919
G1 X136.240763 Z171.320454 E0.020919
G1 X135.79148 Z171.546977 E0.020919
G1 X135.340783 Z171.77067 E0.020919
G1 X134.888687 Z171.991524 E0.020919
G1 X134.435211 Z172.20953 E0.020919
G1 X133.980373 Z172.42468 E0.020919
G1 X133.52419 Z172.636965 E0.020919
G1 X133.066682 Z172.846376 E0.020919
G1 X132.607866 Z173.052906 E0.020919
G1 X132.147759 Z173.256546 E0.020919
G1 X131.686381 Z173.457289 E0.020919
G1 X131.22375 Z173.655125 E0.020919
G1 X130.759883 Z173.850048 E0.020919
G1 X130.2948 Z174.04205 E0.020919
G1 X129.828518 Z174.231122 E0.020919
G1 X129.361057 Z174.417258 E0.020919
G1 X128.892433 Z174.600451 E0.020919
G1 X128.422667 Z174.780693 E0.020919
G1 X127.951777 Z174.957976 E0.020919
G1 X127.479781 Z175.132294 E0.020919
G1 X127.006698 Z175.30364 E0.020919
G1 X126.532547 Z175.472008 E0.020919
G1 X126.057346 Z175.63739 E0.020919
G1 X125.581114 Z175.79978 E0.020919
G1 X125.10387 Z175.959171 E0.020919
G1 X124.625634 Z176.115558 E0.020919
G1 X124.146423 Z176.268934 E0.020919
G1 X123.666257 Z176.419293 E0.020919
G1 X123.185155 Z176.566628 E0.020919
G1 X122.703136 Z176.710936 E0.020919
G1 X122.220218 Z176.852208 E0.020919
G1 X121.736422 Z176.990441 E0.020919
G1 X121.251766 Z177.125628 E0.020919
G1 X120.766269 Z177.257764 E0.020919
G1 X120.279951 Z177.386844 E0.020919
G1 X119.79283 Z177.512863 E0.020919
G1 X119.304927 Z177.635815 E0.020919
G1 X118.81626 Z177.755697 E0.020919
G1 X118.326848 Z177.872502 E0.020919
G1 X117.836712 Z177.986228 E0.020919
G1 X117.34587 Z178.096868 E0.020919
G1 X116.854342 Z178.204419 E0.020919
G1 X116.362147 Z178.308877 E0.020919
G1 X115.869305 Z178.410236 E0.020919
G1 X115.375835 Z178.508494 E0.020919
G1 X114.881757 Z178.603647 E0.020919
G1 X114.38709 Z178.69569 E0.020919
G1 X113.891854 Z178.78462 E0.020919
G1 X113.396069 Z178.870434 E0.020919
G1 X112.899754 Z178.953128 E0.020919
G1 X112.402928 Z179.032698 E0.020919
G1 X111.905612 Z179.109142 E0.020919
G1 X111.407825 Z179.182457 E0.020919
G1 X110.909586 Z179.25264 E0.020919
G1 X110.410916 Z179.319687 E0.020919
G1 X109.911834 Z179.383597 E0.020919
G1 X109.412361 Z179.444367 E0.020919
G1 X108.912514 Z179.501994 E0.020919
G1 X108.412316 Z179.556476 E0.020919
G1 X107.911784 Z179.607812 E0.020919
G1 X107.41094 Z179.655998 E0.020919
G1 X106.909802 Z179.701033 E0.020919
G1 X106.408391 Z179.742915 E0.020919
G1 X105.906726 Z179.781643 E0.020919
G1 X105.404828 Z179.817215 E0.020919
G1 X104.902716 Z179.84963 E0.020919
G1 X104.40041 Z179.878886 E0.020919
G1 X103.89793 Z179.904982 E0.020919
G1 X103.395296 Z179.927917 E0.020919
G1 X102.892528 Z179.947691 E0.020919
G1 X102.389645 Z179.964302 E0.020919
G1 X101.886668 Z179.97775 E0.020919
G1 X101.383615 Z179.988034 E0.020919
G1 X100.880509 Z179.995154 E0.020919
G1 X100.377367 Z179.99911 E0.020919
G1 X99.874211 Z179.999901 E0.020919
G1 X99.371059 Z179.997528 E0.020919
G1 X98.867932 Z179.99199 E0.020919
G1 X98.36485 Z179.983288 E0.020919
G1 X97.861833 Z179.971421 E0.020919
G1 X97.358901 Z179.956392 E0.020919
G1 X96.856072 Z179.938199 E0.020919
G1 X96.353369 Z179.916845 E0.020919
G1 X95.850809 Z179.892329 E0.020919
G1 X95.348414 Z179.864653 E0.020919
G1 X94.846202 Z179.833817 E0.020919
G1 X94.344195 Z179.799824 E0.020919
G1 X93.842411 Z179.762674 E0.020919
G1 X93.340871 Z179.722368 E0.020919
G1 X92.839594 Z179.678909 E0.020919
G1 X92.3386 Z179.632298 E0.020919
G1 X91.83791 Z179.582538 E0.020919
G1 X91.337542 Z179.529629 E0.020919
G1 X90.837517 Z179.473574 E0.020919
G1 X90.337855 Z179.414375 E0.020919
G1 X89.838574 Z179.352035 E0.020919
G1 X89.339696 Z179.286556 E0.020919
G1 X88.841239 Z179.21794 E0.020919
G1 X88.343224 Z179.146191 E0.020919
G1 X87.84567 Z179.071311 E0.020919
G1 X87.348597 Z178.993303 E0.020919
G1 X86.852024 Z178.912171 E0.020919
G1 X86.355971 Z178.827917 E0.020919
G1 X85.860458 Z178.740545 E0.020919
G1 X85.365504 Z178.650057 E0.020919
G1 X84.871129 Z178.556459 E0.020919
G1 X84.377353 Z178.459753 E0.020919
G1 X83.884195 Z178.359944 E0.020919
G1 X83.391674 Z178.257035 E0.020919
G1 X82.89981 Z178.15103 E0.020919
G1 X82.408622 Z178.041934 E0.020919
G1 X81.918131 Z177.92975 E0.020919
G1 X81.428354 Z177.814484 E0.020919
G1 X80.939313 Z177.69614 E0.020919
G1 X80.451025 Z177.574723 E0.020919
G1 X79.963511 Z177.450236 E0.020919
G1 X79.476789 Z177.322686 E0.020919
G1 X78.990879 Z177.192077 E0.020919
G1 X78.5058 Z177.058415 E0.020919
G1 X78.021571 Z176.921705 E0.020919
G1 X77.538212 Z176.781952 E0.020919
G1 X77.055741 Z176.639161 E0.020919
G1 X76.574178 Z176.493339 E0.020919
G1 X76.093542 Z176.344491 E0.020919
G1 X75.613851 Z176.192623 E0.020919
G1 X75.135125 Z176.037741 E0.020919
G1 X74.657383 Z175.879851 E0.020919
G1 X74.180643 Z175.718959 E0.020919
G1 X73.704924 Z175.555072 E0.020919
G1 X73.230245 Z175.388197 E0.020919
G1 X72.756626 Z175.218339 E0.020919
G1 X72.284084 Z175.045506 E0.020919
G1 X71.812638 Z174.869704 E0.020919
G1 X71.342308 Z174.690941 E0.020919
G1 X70.873111 Z174.509223 E0.020919
G1 X70.405066 Z174.324558 E0.020919
G1 X69.938192 Z174.136952 E0.020919
G1 X69.472507 Z173.946414 E0.020919
G1 X69.00803 Z173.752951 E0.020919
G1 X68.544779 Z173.556571 E0.020919
G1 X68.082772 Z173.35728 E0.020919
G1 X67.622027 Z173.155088 E0.020919
G1 X67.162564 Z172.950002 E0.020919
G1 X66.704399 Z172.74203 E0.020919
G1 X66.247552 Z172.531181 E0.020919
G1 X65.792039 Z172.317463 E0.020919
G1 X65.33788 Z172.100884 E0.020919
G1 X64.885092 Z171.881452 E0.020919
G1 X64.433693 Z171.659178 E0.020919
G1 X63.9837 Z171.434069 E0.020919
G1 X63.535133 Z171.206134 E0.020919
G1 X63.088008 Z170.975382 E0.020919
G1 X62.642343 Z170.741823 E0.020919
G1 X62.198156 Z170.505465 E0.020919
G1 X61.755464 Z170.266318 E0.020919
G1 X61.314285 Z170.024392 E0.020919
G1 X60.874637 Z169.779696 E0.020919
G1 X60.436536 Z169.532239 E0.020919
G1 X60 Z169.282032 E0.020919
G1 X59.565046 Z169.029085 E0.020919
G1 X59.131692 Z168.773406 E0.020919
G1 X58.699955 Z168.515008 E0.020919
G1 X58.269851 Z168.253899 E0.020919
G1 X57.841398 Z167.99009 E0.020919
G1 X57.414613 Z167.723591 E0.020919
G1 X56.989512 Z167.454414 E0.020919
G1 X56.566113 Z167.182568 E0.020919
G1 X56.144432 Z166.908065 E0.020919
G1 X55.724485 Z166.630915 E0.020919
G1 X55.30629 Z166.351129 E0.020919
G1 X54.889863 Z166.068718 E0.020919
G1 X54.475221 Z165.783695 E0.020919
G1 X54.062379 Z165.496068 E0.020919
G1 X53.651354 Z165.205851 E0.020919
G1 X53.242163 Z164.913055 E0.020919
G1 X52.834822 Z164.617691 E0.020919
G1 X52.429346 Z164.31977 E0.020919
G1 X52.025752 Z164.019306 E0.020919
G1 X51.624056 Z163.716309 E0.020919
G1 X51.224273 Z163.410791 E0.020919
G1 X50.82642 Z163.102765 E0.020919
G1 X50.430512 Z162.792243 E0.020919
G1 X50.036564 Z162.479237 E0.020919
G1 X49.644594 Z162.16376 E0.020919
G1 X49.254615 Z161.845823 E0.020919
G1 X48.866643 Z161.525441 E0.020919
G1 X48.480694 Z161.202624 E0.020919
G1 X48.096784 Z160.877386 E0.020919
G1 X47.714926 Z160.54974 E0.020919
G1 X47.335137 Z160.219699 E0.020919
G1 X46.95743 Z159.887276 E0.020919
G1 X46.581822 Z159.552484 E0.020919
G1 X46.208328 Z159.215336 E0.020919
G1 X45.836961 Z158.875845 E0.020919
G1 X45.467736 Z158.534026 E0.020919
G1 X45.100669 Z158.189891 E0.020919
G1 X44.735773 Z157.843455 E0.020919
G1 X44.373064 Z157.49473 E0.020919
G1 X44.012555 Z157.143731 E0.020919
G1 X43.65426 Z156.790471 E0.020919
G1 X43.298195 Z156.434965 E0.020919
G1 X42.944373 Z156.077227 E0.020919
G1 X42.592807 Z155.71727 E0.020919
G1 X42.243512 Z155.35511 E0.020919
G1 X41.896503 Z154.990759 E0.020919
G1 X41.551791 Z154.624233 E0.020919
G1 X41.209392 Z154.255547 E0.020919
G1 X40.869318 Z153.884714 E0.020919
G1 X40.531583 Z153.51175 E0.020919
G1 X40.196201 Z153.136669 E0.020919
G1 X39.863184 Z152.759486 E0.020919
G1 X39.532546 Z152.380216 E0.020919
G1 X39.2043 Z151.998874 E0.020919
G1 X38.878459 Z151.615475 E0.020919
G1 X38.555036 Z151.230034 E0.020919
G1 X38.234043 Z150.842567 E0.020919
G1 X37.915494 Z150.453088 E0.020919
G1 X37.599401 Z150.061614 E0.020919
G1 X37.285776 Z149.66816 E0.020919
G1 X36.974632 Z149.27274 E0.020919
G1 X36.665981 Z148.875372 E0.020919
G1 X36.359835 Z148.47607 E0.020919
G1 X36.056207 Z148.074851 E0.020919
G1 X35.755108 Z147.67173 E0.020919
G1 X35.45655 Z147.266723 E0.020919
G1 X35.160546 Z146.859846 E0.020919
G1 X34.867106 Z146.451116 E0.020919
G1 X34.576243 Z146.040548 E0.020919
G1 X34.287969 Z145.628159 E0.020919
G1 X34.002293 Z145.213965 E0.020919
G1 X33.719228 Z144.797983 E0.020919
G1 X33.438785 Z144.380228 E0.020919
G1 X33.160975 Z143.960718 E0.020919
G1 X32.885809 Z143.539469 E0.020919
G1 X32.613298 Z143.116498 E0.020919
G1 X32.343452 Z142.691821 E0.020919
G1 X32.076283 Z142.265455 E0.020919
G1 X31.811801 Z141.837417 E0.020919
