
;FLAVOR:Marlin
;TIME:0
;Filament used: 0m
;Layer height: 0
;MINX:0
;MINY:0
;MINZ:0
;MAXX:220
;MAXY:220
;MAXZ:270

; Time to print!!!!!
; GCode created with FullControl - tell us what you're printing!
; info@fullcontrol.xyz or tag FullControlXYZ on Twitter/Instagram/LinkedIn/Reddit/TikTok 

G28 ; home axes
M140 S0 ; set bed temp and continue
M105
M104 S0 ; set hotend temp and continue
M190 S0 ; set bed temp and wait
M105
M109 S0  ; set hotend temp and wait
G90 ; absolute coordinates
G21 ; set units to millimeters
M83 ; relative extrusion
M106 S0 ; set fan speed
M220 S100 ; set speed factor override percentage
M221 S100 ; set extrude factor override percentage
;-----
; END OF STARTING PROCEDURE
;-----

;-----
; START OF PRIMER PROCEDURE
;-----
G0 F8000 X10 Y12 Z10
G1 F1000 X110 E4.157517
G1 Y14 E0.08315
G1 X10 E4.157517
G1 Y16 E0.08315
G1 X100 E3.741765
G1 Y100 E3.492314
;-----
; END OF PRIMER PROCEDURE
;-----

G1 F9000 X180 E3.326014
G1 X179.999605 Y100.251453 E0.010454
G1 X179.998419 Y100.502903 E0.010454
G1 X179.996443 Y100.754348 E0.010454
G1 X179.993677 Y101.005786 E0.010454
G1 X179.990121 Y101.257214 E0.010454
G1 X179.985774 Y101.508629 E0.010454
G1 X179.980637 Y101.76003 E0.010454
G1 X179.97471 Y102.011413 E0.010454
G1 X179.967993 Y102.262776 E0.010454
G1 X179.960485 Y102.514117 E0.010454
G1 X179.952188 Y102.765433 E0.010454
G1 X179.943101 Y103.016722 E0.010454
G1 X179.933224 Y103.267981 E0.010454
G1 X179.922557 Y103.519208 E0.010454
G1 X179.911101 Y103.7704 E0.010454
G1 X179.898855 Y104.021555 E0.010454
G1 X179.88582 Y104.272669 E0.010454
G1 X179.871996 Y104.523742 E0.010454
G1 X179.857383 Y104.77477 E0.010454
G1 X179.84198 Y105.025751 E0.010454
G1 X179.825789 Y105.276682 E0.010454
G1 X179.808809 Y105.527561 E0.010454
G1 X179.791041 Y105.778386 E0.010454
G1 X179.772485 Y106.029153 E0.010454
G1 X179.75314 Y106.279861 E0.010454
G1 X179.733007 Y106.530507 E0.010454
G1 X179.712087 Y106.781088 E0.010454
G1 X179.690379 Y107.031602 E0.010454
G1 X179.667884 Y107.282047 E0.010454
G1 X179.644602 Y107.53242 E0.010454
G1 X179.620533 Y107.782719 E0.010454
G1 X179.595677 Y108.03294 E0.010454
G1 X179.570035 Y108.283082 E0.010454
G1 X179.543607 Y108.533143 E0.010454
G1 X179.516393 Y108.783119 E0.010454
G1 X179.488394 Y109.033008 E0.010454
G1 X179.459609 Y109.282808 E0.010454
G1 X179.430039 Y109.532516 E0.010454
G1 X179.399685 Y109.782131 E0.010454
G1 X179.368546 Y110.031648 E0.010454
G1 X179.336623 Y110.281066 E0.010454
G1 X179.303916 Y110.530383 E0.010454
G1 X179.270425 Y110.779596 E0.010454
G1 X179.236152 Y111.028702 E0.010454
G1 X179.201095 Y111.2777 E0.010454
G1 X179.165256 Y111.526586 E0.010454
G1 X179.128635 Y111.775358 E0.010454
G1 X179.091233 Y112.024013 E0.010454
G1 X179.053049 Y112.27255 E0.010454
G1 X179.014084 Y112.520966 E0.010454
G1 X178.974338 Y112.769258 E0.010454
G1 X178.933812 Y113.017424 E0.010454
G1 X178.892506 Y113.265461 E0.010454
G1 X178.850421 Y113.513367 E0.010454
G1 X178.807557 Y113.76114 E0.010454
G1 X178.763914 Y114.008777 E0.010454
G1 X178.719493 Y114.256275 E0.010454
G1 X178.674295 Y114.503632 E0.010454
G1 X178.628319 Y114.750847 E0.010454
G1 X178.581566 Y114.997915 E0.010454
G1 X178.534037 Y115.244835 E0.010454
G1 X178.485732 Y115.491605 E0.010454
G1 X178.436652 Y115.738222 E0.010454
G1 X178.386797 Y115.984683 E0.010454
G1 X178.336167 Y116.230986 E0.010454
G1 X178.284764 Y116.477129 E0.010454
G1 X178.232587 Y116.723109 E0.010454
G1 X178.179637 Y116.968924 E0.010454
G1 X178.125915 Y117.214571 E0.010454
G1 X178.071421 Y117.460048 E0.010454
G1 X178.016155 Y117.705353 E0.010454
G1 X177.960119 Y117.950482 E0.010454
G1 X177.903313 Y118.195435 E0.010454
G1 X177.845737 Y118.440207 E0.010454
G1 X177.787392 Y118.684798 E0.010454
G1 X177.728278 Y118.929204 E0.010454
G1 X177.668397 Y119.173423 E0.010454
G1 X177.607748 Y119.417452 E0.010454
G1 X177.546333 Y119.66129 E0.010454
G1 X177.484151 Y119.904933 E0.010454
G1 X177.421204 Y120.14838 E0.010454
G1 X177.357492 Y120.391627 E0.010454
G1 X177.293016 Y120.634673 E0.010454
G1 X177.227776 Y120.877516 E0.010454
G1 X177.161773 Y121.120152 E0.010454
G1 X177.095008 Y121.362579 E0.010454
G1 X177.027481 Y121.604796 E0.010454
G1 X176.959193 Y121.846798 E0.010454
G1 X176.890145 Y122.088586 E0.010454
G1 X176.820337 Y122.330154 E0.010454
G1 X176.74977 Y122.571503 E0.010454
G1 X176.678446 Y122.812628 E0.010454
G1 X176.606363 Y123.053528 E0.010454
G1 X176.533524 Y123.2942 E0.010454
G1 X176.459928 Y123.534642 E0.010454
G1 X176.385577 Y123.774851 E0.010454
G1 X176.310472 Y124.014826 E0.010454
G1 X176.234613 Y124.254563 E0.010454
G1 X176.158 Y124.494061 E0.010454
G1 X176.080635 Y124.733317 E0.010454
G1 X176.002519 Y124.972328 E0.010454
G1 X175.923651 Y125.211093 E0.010454
G1 X175.844034 Y125.449608 E0.010454
G1 X175.763667 Y125.687872 E0.010454
G1 X175.682552 Y125.925883 E0.010454
G1 X175.600689 Y126.163637 E0.010454
G1 X175.518079 Y126.401133 E0.010454
G1 X175.434723 Y126.638368 E0.010454
G1 X175.350621 Y126.875339 E0.010454
G1 X175.265776 Y127.112046 E0.010454
G1 X175.180186 Y127.348484 E0.010454
G1 X175.093854 Y127.584652 E0.010454
G1 X175.006781 Y127.820548 E0.010454
G1 X174.918966 Y128.056169 E0.010454
G1 X174.830411 Y128.291512 E0.010454
G1 X174.741116 Y128.526576 E0.010454
G1 X174.651083 Y128.761359 E0.010454
G1 X174.560313 Y128.995857 E0.010454
G1 X174.468806 Y129.230068 E0.010454
G1 X174.376564 Y129.463991 E0.010454
G1 X174.283586 Y129.697623 E0.010454
G1 X174.189875 Y129.930962 E0.010454
G1 X174.095431 Y130.164004 E0.010454
G1 X174.000254 Y130.396749 E0.010454
G1 X173.904347 Y130.629194 E0.010454
G1 X173.807709 Y130.861335 E0.010454
G1 X173.710343 Y131.093172 E0.010454
G1 X173.612248 Y131.324702 E0.010454
G1 X173.513426 Y131.555922 E0.010454
G1 X173.413877 Y131.786831 E0.010454
G1 X173.313604 Y132.017425 E0.010454
G1 X173.212606 Y132.247703 E0.010454
G1 X173.110884 Y132.477663 E0.010454
G1 X173.008441 Y132.707302 E0.010454
G1 X172.905276 Y132.936617 E0.010454
G1 X172.801391 Y133.165607 E0.010454
G1 X172.696786 Y133.39427 E0.010454
G1 X172.591464 Y133.622603 E0.010454
G1 X172.485424 Y133.850603 E0.010454
G1 X172.378668 Y134.078269 E0.010454
G1 X172.271197 Y134.305598 E0.010454
G1 X172.163012 Y134.532589 E0.010454
G1 X172.054114 Y134.759238 E0.010454
G1 X171.944504 Y134.985544 E0.010454
G1 X171.834184 Y135.211504 E0.010454
G1 X171.723154 Y135.437116 E0.010454
G1 X171.611415 Y135.662379 E0.010454
G1 X171.498969 Y135.887288 E0.010454
G1 X171.385816 Y136.111844 E0.010454
G1 X171.271958 Y136.336042 E0.010454
G1 X171.157396 Y136.559882 E0.010454
G1 X171.042131 Y136.78336 E0.010454
G1 X170.926164 Y137.006475 E0.010454
G1 X170.809497 Y137.229225 E0.010454
G1 X170.692129 Y137.451607 E0.010454
G1 X170.574064 Y137.673618 E0.010454
G1 X170.455301 Y137.895258 E0.010454
G1 X170.335842 Y138.116523 E0.010454
G1 X170.215689 Y138.337411 E0.010454
G1 X170.094841 Y138.557921 E0.010454
G1 X169.973301 Y138.778049 E0.010454
G1 X169.85107 Y138.997795 E0.010454
G1 X169.728149 Y139.217156 E0.010454
G1 X169.604538 Y139.436128 E0.010454
G1 X169.480241 Y139.654712 E0.010454
G1 X169.355256 Y139.872903 E0.010454
G1 X169.229587 Y140.090701 E0.010454
G1 X169.103233 Y140.308103 E0.010454
G1 X168.976197 Y140.525106 E0.010454
G1 X168.84848 Y140.741709 E0.010454
G1 X168.720082 Y140.957909 E0.010454
G1 X168.591005 Y141.173705 E0.010454
G1 X168.461251 Y141.389094 E0.010454
G1 X168.33082 Y141.604074 E0.010454
G1 X168.199714 Y141.818644 E0.010454
G1 X168.067935 Y142.032799 E0.010454
G1 X167.935483 Y142.24654 E0.010454
G1 X167.80236 Y142.459864 E0.010454
G1 X167.668567 Y142.672767 E0.010454
G1 X167.534105 Y142.88525 E0.010454
G1 X167.398976 Y143.097308 E0.010454
G1 X167.263182 Y143.308941 E0.010454
G1 X167.126723 Y143.520146 E0.010454
G1 X166.9896 Y143.730921 E0.010454
G1 X166.851816 Y143.941264 E0.010454
G1 X166.713372 Y144.151173 E0.010454
G1 X166.574268 Y144.360645 E0.010454
G1 X166.434506 Y144.56968 E0.010454
G1 X166.294089 Y144.778274 E0.010454
G1 X166.153016 Y144.986426 E0.010454
G1 X166.01129 Y145.194133 E0.010454
G1 X165.868911 Y145.401394 E0.010454
G1 X165.725882 Y145.608206 E0.010454
G1 X165.582204 Y145.814567 E0.010454
G1 X165.437877 Y146.020476 E0.010454
G1 X165.292904 Y146.225931 E0.010454
G1 X165.147286 Y146.430928 E0.010454
G1 X165.001025 Y146.635467 E0.010454
G1 X164.854121 Y146.839545 E0.010454
G1 X164.706576 Y147.043161 E0.010454
G1 X164.558393 Y147.246312 E0.010454
G1 X164.409571 Y147.448995 E0.010454
G1 X164.260113 Y147.651211 E0.010454
G1 X164.11002 Y147.852955 E0.010454
G1 X163.959294 Y148.054227 E0.010454
G1 X163.807936 Y148.255023 E0.010454
G1 X163.655948 Y148.455344 E0.010454
G1 X163.50333 Y148.655185 E0.010454
G1 X163.350086 Y148.854546 E0.010454
G1 X163.196215 Y149.053424 E0.010454
G1 X163.04172 Y149.251817 E0.010454
G1 X162.886603 Y149.449724 E0.010454
G1 X162.730864 Y149.647142 E0.010454
G1 X162.574505 Y149.84407 E0.010454
G1 X162.417528 Y150.040506 E0.010454
G1 X162.259934 Y150.236447 E0.010454
G1 X162.101726 Y150.431891 E0.010454
G1 X161.942903 Y150.626838 E0.010454
G1 X161.783469 Y150.821284 E0.010454
G1 X161.623425 Y151.015228 E0.010454
G1 X161.462771 Y151.208669 E0.010454
G1 X161.301511 Y151.401603 E0.010454
G1 X161.139644 Y151.594029 E0.010454
G1 X160.977174 Y151.785946 E0.010454
G1 X160.814102 Y151.977351 E0.010454
G1 X160.650428 Y152.168243 E0.010454
G1 X160.486155 Y152.358619 E0.010454
G1 X160.321285 Y152.548478 E0.010454
G1 X160.155819 Y152.737818 E0.010454
G1 X159.989758 Y152.926637 E0.010454
G1 X159.823105 Y153.114933 E0.010454
G1 X159.655861 Y153.302704 E0.010454
G1 X159.488027 Y153.489948 E0.010454
G1 X159.319606 Y153.676665 E0.010454
G1 X159.150599 Y153.86285 E0.010454
G1 X158.981007 Y154.048504 E0.010454
G1 X158.810833 Y154.233624 E0.010454
G1 X158.640077 Y154.418208 E0.010454
G1 X158.468743 Y154.602254 E0.010454
G1 X158.29683 Y154.785761 E0.010454
G1 X158.124342 Y154.968726 E0.010454
G1 X157.951279 Y155.151149 E0.010454
G1 X157.777644 Y155.333027 E0.010454
G1 X157.603438 Y155.514358 E0.010454
G1 X157.428663 Y155.69514 E0.010454
G1 X157.253321 Y155.875372 E0.010454
G1 X157.077413 Y156.055053 E0.010454
G1 X156.900941 Y156.234179 E0.010454
G1 X156.723907 Y156.41275 E0.010454
G1 X156.546313 Y156.590764 E0.010454
G1 X156.36816 Y156.768218 E0.010454
G1 X156.18945 Y156.945112 E0.010454
G1 X156.010184 Y157.121443 E0.010454
G1 X155.830366 Y157.29721 E0.010454
G1 X155.649996 Y157.47241 E0.010454
G1 X155.469076 Y157.647043 E0.010454
G1 X155.287608 Y157.821107 E0.010454
G1 X155.105594 Y157.994599 E0.010454
G1 X154.923036 Y158.167518 E0.010454
G1 X154.739935 Y158.339862 E0.010454
G1 X154.556293 Y158.511631 E0.010454
G1 X154.372112 Y158.682821 E0.010454
G1 X154.187394 Y158.853431 E0.010454
G1 X154.002141 Y159.02346 E0.010454
G1 X153.816354 Y159.192906 E0.010454
G1 X153.630035 Y159.361767 E0.010454
G1 X153.443187 Y159.530041 E0.010454
G1 X153.25581 Y159.697727 E0.010454
G1 X153.067908 Y159.864824 E0.010454
G1 X152.879481 Y160.031329 E0.010454
G1 X152.690532 Y160.197241 E0.010454
G1 X152.501062 Y160.362559 E0.010454
G1 X152.311074 Y160.52728 E0.010454
G1 X152.120568 Y160.691403 E0.010454
G1 X151.929548 Y160.854926 E0.010454
G1 X151.738015 Y161.017848 E0.010454
G1 X151.545971 Y161.180168 E0.010454
G1 X151.353417 Y161.341883 E0.010454
G1 X151.160356 Y161.502992 E0.010454
G1 X150.96679 Y161.663493 E0.010454
G1 X150.77272 Y161.823385 E0.010454
G1 X150.578148 Y161.982666 E0.010454
G1 X150.383077 Y162.141335 E0.010454
G1 X150.187508 Y162.29939 E0.010454
G1 X149.991443 Y162.45683 E0.010454
G1 X149.794884 Y162.613653 E0.010454
G1 X149.597834 Y162.769857 E0.010454
G1 X149.400293 Y162.92544 E0.010454
G1 X149.202264 Y163.080403 E0.010454
G1 X149.00375 Y163.234741 E0.010454
G1 X148.804751 Y163.388456 E0.010454
G1 X148.60527 Y163.541544 E0.010454
G1 X148.405308 Y163.694004 E0.010454
G1 X148.204869 Y163.845835 E0.010454
G1 X148.003953 Y163.997035 E0.010454
G1 X147.802563 Y164.147603 E0.010454
G1 X147.600701 Y164.297537 E0.010454
G1 X147.398368 Y164.446836 E0.010454
G1 X147.195568 Y164.595498 E0.010454
G1 X146.9923 Y164.743522 E0.010454
G1 X146.788569 Y164.890907 E0.010454
G1 X146.584376 Y165.03765 E0.010454
G1 X146.379722 Y165.183751 E0.010454
G1 X146.17461 Y165.329208 E0.010454
G1 X145.969042 Y165.474019 E0.010454
G1 X145.763019 Y165.618184 E0.010454
G1 X145.556545 Y165.7617 E0.010454
G1 X145.34962 Y165.904567 E0.010454
G1 X145.142248 Y166.046782 E0.010454
G1 X144.934429 Y166.188345 E0.010454
G1 X144.726167 Y166.329255 E0.010454
G1 X144.517462 Y166.469508 E0.010454
G1 X144.308318 Y166.609105 E0.010454
G1 X144.098736 Y166.748045 E0.010454
G1 X143.888719 Y166.886324 E0.010454
G1 X143.678268 Y167.023943 E0.010454
G1 X143.467385 Y167.1609 E0.010454
G1 X143.256073 Y167.297193 E0.010454
G1 X143.044333 Y167.432821 E0.010454
G1 X142.832169 Y167.567783 E0.010454
G1 X142.619581 Y167.702078 E0.010454
G1 X142.406572 Y167.835703 E0.010454
G1 X142.193144 Y167.968659 E0.010454
G1 X141.979299 Y168.100943 E0.010454
G1 X141.76504 Y168.232554 E0.010454
G1 X141.550368 Y168.363491 E0.010454
G1 X141.335285 Y168.493753 E0.010454
G1 X141.119794 Y168.623338 E0.010454
G1 X140.903897 Y168.752245 E0.010454
G1 X140.687596 Y168.880473 E0.010454
G1 X140.470893 Y169.00802 E0.010454
G1 X140.253789 Y169.134886 E0.010454
G1 X140.036289 Y169.261068 E0.010454
G1 X139.818392 Y169.386567 E0.010454
G1 X139.600103 Y169.511379 E0.010454
G1 X139.381422 Y169.635506 E0.010454
G1 X139.162352 Y169.758944 E0.010454
G1 X138.942895 Y169.881693 E0.010454
G1 X138.723053 Y170.003751 E0.010454
G1 X138.502829 Y170.125118 E0.010454
G1 X138.282224 Y170.245792 E0.010454
G1 X138.061242 Y170.365772 E0.010454
G1 X137.839883 Y170.485057 E0.010454
G1 X137.61815 Y170.603646 E0.010454
G1 X137.396046 Y170.721537 E0.010454
G1 X137.173572 Y170.838729 E0.010454
G1 X136.950731 Y170.955222 E0.010454
G1 X136.727525 Y171.071013 E0.010454
G1 X136.503956 Y171.186103 E0.010454
G1 X136.280026 Y171.300489 E0.010454
G1 X136.055738 Y171.41417 E0.010454
G1 X135.831094 Y171.527147 E0.010454
G1 X135.606096 Y171.639416 E0.010454
G1 X135.380746 Y171.750978 E0.010454
G1 X135.155047 Y171.861831 E0.010454
G1 X134.929 Y171.971974 E0.010454
G1 X134.702608 Y172.081405 E0.010454
G1 X134.475873 Y172.190125 E0.010454
G1 X134.248798 Y172.298132 E0.010454
G1 X134.021384 Y172.405424 E0.010454
G1 X133.793634 Y172.512001 E0.010454
G1 X133.56555 Y172.617862 E0.010454
G1 X133.337135 Y172.723005 E0.010454
G1 X133.108391 Y172.827429 E0.010454
G1 X132.879319 Y172.931135 E0.010454
G1 X132.649922 Y173.034119 E0.010454
G1 X132.420203 Y173.136382 E0.010454
G1 X132.190164 Y173.237923 E0.010454
G1 X131.959806 Y173.33874 E0.010454
G1 X131.729133 Y173.438832 E0.010454
G1 X131.498146 Y173.538199 E0.010454
G1 X131.266848 Y173.63684 E0.010454
G1 X131.035242 Y173.734753 E0.010454
G1 X130.803328 Y173.831937 E0.010454
G1 X130.571111 Y173.928392 E0.010454
G1 X130.338591 Y174.024117 E0.010454
G1 X130.105772 Y174.11911 E0.010454
G1 X129.872655 Y174.213371 E0.010454
G1 X129.639243 Y174.306899 E0.010454
G1 X129.405538 Y174.399693 E0.010454
G1 X129.171543 Y174.491752 E0.010454
G1 X128.937259 Y174.583075 E0.010454
G1 X128.70269 Y174.673661 E0.010454
G1 X128.467837 Y174.763509 E0.010454
G1 X128.232702 Y174.852619 E0.010454
G1 X127.997289 Y174.940989 E0.010454
G1 X127.7616 Y175.028618 E0.010454
G1 X127.525636 Y175.115507 E0.010454
G1 X127.2894 Y175.201653 E0.010454
G1 X127.052894 Y175.287057 E0.010454
G1 X126.816121 Y175.371716 E0.010454
G1 X126.579083 Y175.455632 E0.010454
G1 X126.341783 Y175.538801 E0.010454
G1 X126.104222 Y175.621224 E0.010454
G1 X125.866404 Y175.702901 E0.010454
G1 X125.62833 Y175.783829 E0.010454
G1 X125.390003 Y175.864008 E0.010454
G1 X125.151425 Y175.943438 E0.010454
G1 X124.912598 Y176.022118 E0.010454
G1 X124.673525 Y176.100047 E0.010454
G1 X124.434209 Y176.177224 E0.010454
G1 X124.194651 Y176.253648 E0.010454
G1 X123.954854 Y176.329319 E0.010454
G1 X123.714821 Y176.404236 E0.010454
G1 X123.474553 Y176.478398 E0.010454
G1 X123.234053 Y176.551804 E0.010454
G1 X122.993324 Y176.624455 E0.010454
G1 X122.752368 Y176.696348 E0.010454
G1 X122.511186 Y176.767483 E0.010454
